X:1
T: The Duke of Brunswick's March
C:
R:Reel
Q: 232
K:A
M:4/4
L:1/8
|:E2|A2 AA A2 A2|F2 B2 B2 A2|G2 E2 F2 G2|AG AB AG FE|
AA A2 A2 A2|F2 B2 B2 A2|G2 FE F2 G2|1A4 A2 E2:|2A4 A2 cd|
|:e2 e2 e2 c2|d2 d2 d2 ef|g2 g2 g2 fe|ag ab a2 cd|
e2 e2 e2 c2|f3g a2 f2|e2 d2 c2 B2|1c2 A2 A2 cd:|2c2 A2 A2||
